newicons/japanese_linduo_hd.svg

<?xml version="1.0" encoding="UTF-8" standalone="no"?>
<svg
   viewBox="0 0 48 48"
   version="1.1"
   id="svg1"
   xml:space="preserve"
   xmlns="http://www.w3.org/2000/svg"
   xmlns:svg="http://www.w3.org/2000/svg"><defs
     id="defs1"><style
       id="style1">.a{fill:none;stroke:#fff;stroke-linecap:round;stroke-linejoin:round;}</style></defs><circle
     class="a"
     cx="24"
     cy="24"
     r="21.5"
     id="circle1" /><path
     style="display:inline;fill:none;stroke:#ffffff;stroke-linecap:round;stroke-linejoin:round;stroke-dashoffset:0.5"
     d="m 18.835358,21.71079 c 0.64613,0.454123 -1.288095,1.961964 -1.766088,-0.07813 0.606381,-0.393426 1.237892,-0.231075 1.766088,0.07813"
     id="path27-7" /><path
     d="M 17.578588,22.203125"
     style="fill:none;stroke:#ffffff;stroke-linecap:round;stroke-linejoin:round;stroke-dashoffset:0.5"
     id="path1" /><path
     style="fill:none;stroke:#ffffff;stroke-linecap:round;stroke-linejoin:round;stroke-dashoffset:0.5"
     d="M 33.667535,11.856175 C 33.206442,11.433335 28.984246,8.3502366 24.162584,8.8796247 16.796288,9.8442365 11.572506,17.392531 15.433038,25.588327"
     id="path2" /><path
     style="fill:none;stroke:#ffffff;stroke-linecap:round;stroke-linejoin:round;stroke-dashoffset:0.5"
     d="M 28.50352,9.275594 C 28.398863,8.2331669 29.697507,7.0959221 27.376759,6.2032308 24.083557,4.7487314 24.715504,7.4398943 24.162584,8.8796247"
     id="path3" /><path
     style="fill:none;stroke:#ffffff;stroke-linecap:round;stroke-linejoin:round;stroke-dashoffset:0.5"
     d="M 28.772311,7.6393079 C 31.14452,5.854746 32.811068,9.1233213 31.183187,10.306689"
     id="path4" /><path
     style="fill:none;stroke:#ffffff;stroke-linecap:round;stroke-linejoin:round;stroke-dashoffset:0.5"
     d="M 31.826809,8.8451995 C 32.475661,8.7085123 33.16454,8.5493616 33.780094,8.7123466"
     id="path5" /><path
     style="fill:none;stroke:#ffffff;stroke-linecap:round;stroke-linejoin:round;stroke-dashoffset:0.5"
     d="M 35.334257,5.7302267 C 34.621284,6.1414652 33.88669,6.5341724 33.855133,7.5294818 l 0.02501,8.6539472 c 0.692003,-0.298242 0.825266,-0.811383 2.288692,-0.812924 h 5.958096 c 0.839456,0 0.908105,-0.700798 1.07422,-1.043447"
     id="path6" /><path
     style="fill:none;stroke:#ffffff;stroke-linecap:round;stroke-linejoin:round;stroke-dashoffset:0.5"
     id="path7"
     d="m 41.123274,11.105568 a 2.3,2.3 0 0 1 -2.525455,1.578854 2.3,2.3 0 0 1 -1.966123,-2.2372 2.3,2.3 0 0 1 1.890164,-2.3017344" /><path
     style="fill:none;stroke:#ffffff;stroke-linecap:round;stroke-linejoin:round;stroke-dashoffset:0.5"
     d="M 34.022004,6.8392264 C 31.926972,5.580457 29.831939,5.8466115 27.736907,6.357079"
     id="path8" /><path
     style="fill:none;stroke:#ffffff;stroke-linecap:round;stroke-linejoin:round;stroke-dashoffset:0.5"
     d="m 22.4375,4.03125 2.448683,2.1837159"
     id="path9" /><path
     style="fill:none;stroke:#ffffff;stroke-linecap:round;stroke-linejoin:round;stroke-dashoffset:0.5"
     d="m 18.96875,6.6180043 5.453018,1.1132932"
     id="path10" /><path
     style="fill:none;stroke:#ffffff;stroke-linecap:round;stroke-linejoin:round;stroke-dashoffset:0.5"
     d="m 36.90625,15.6875 c 2.47609,7.194565 0.307575,16.794356 -6.60367,16.640625"
     id="path11" /><path
     style="fill:none;stroke:#ffffff;stroke-linecap:round;stroke-linejoin:round;stroke-dashoffset:0.5"
     d="m 37.362797,17.24956 1.965328,2.672315"
     id="path12" /><path
     style="fill:none;stroke:#ffffff;stroke-linecap:round;stroke-linejoin:round;stroke-dashoffset:0.5"
     d="m 15.433038,25.588327 c -0.22967,-4.108247 0.550207,-7.97956 4.379462,-11.135202 -1.302013,5.261977 0.805294,6.225633 3.035888,8.063807 -0.268931,-1.654304 -0.231197,-3.425141 0.961223,-5.634758 1.012264,1.84439 2.013977,3.973657 3.082544,4.297884 -0.69171,-1.842595 -0.0195,-3.095388 0.309359,-4.496655 0.424251,2.819204 0.883608,5.103036 1.425262,6.131839"
     id="path13" /><path
     style="fill:none;stroke:#ffffff;stroke-linecap:round;stroke-linejoin:round;stroke-dashoffset:0.5"
     d="m 30.30258,32.328125 c -2.285201,-0.255013 -0.513876,-3.052393 1.54117,-3.6875 2.666593,-1.012382 2.286458,-2.980058 2.323785,-4.296875 -2.103151,3.961216 -6.294481,5.140235 -9.605035,8.703125"
     id="path14" /><path
     style="fill:none;stroke:#ffffff;stroke-linecap:round;stroke-linejoin:round;stroke-dashoffset:0.5"
     d="M 28.626776,22.815242 C 28.174767,26.435333 24.134527,29.365676 24.5625,33.046875"
     id="path15" /><path
     style="fill:none;stroke:#ffffff;stroke-linecap:round;stroke-linejoin:round;stroke-dashoffset:0.5"
     d="m 15.433038,25.588327 c 0.875073,2.433966 1.1277,5.125496 4.285712,6.614798 1.240038,0.428886 3.397604,0 4.911117,-0.69575"
     id="path16" /><path
     style="fill:none;stroke:#ffffff;stroke-linecap:round;stroke-linejoin:round;stroke-dashoffset:0.5"
     d="m 33.664912,19.147126 c 0.854528,-2.281251 2.207484,-0.815375 2.021883,0.353553 0.965921,-0.09268 1.969651,1.66751 -0.0221,2.19866 0.04391,2.380788 -1.992284,1.524062 -2.077126,0.375651 -0.893343,1.203161 -2.658184,0.211729 -1.314777,-1.414214 -1.046209,-1.632565 0.308457,-2.589139 1.39212,-1.51365 z"
     id="path17" /><path
     style="fill:none;stroke:#ffffff;stroke-linecap:round;stroke-linejoin:round;stroke-dashoffset:0.5"
     d="m 19.71875,32.203125 c -3.770669,2.496774 -7.48555,5.027314 -6.879761,10.172997"
     id="path18" /><path
     style="fill:none;stroke:#ffffff;stroke-linecap:round;stroke-linejoin:round;stroke-dashoffset:0.5"
     d="m 31.285399,32.593203 v 1.237437 c 4.326811,-0.374599 6.098527,4.648797 6.352807,6.79011"
     id="path19" /><path
     style="fill:none;stroke:#ffffff;stroke-linecap:round;stroke-linejoin:round;stroke-dashoffset:0.5"
     d="M 14.93081,35.959695 14.933038,30.625 H 8.78125 v 8.605695"
     id="path23" /><path
     style="fill:none;stroke:#ffffff;stroke-linecap:round;stroke-linejoin:round;stroke-dashoffset:0.5"
     d="m 7.5,32.891192 h 8.747013"
     id="path24" /><path
     style="fill:none;stroke:#ffffff;stroke-linecap:round;stroke-linejoin:round;stroke-dashoffset:0.5"
     d="M 8.78125,30.625 H 6.6875 V 29.1875 L 4.84375,28.989759 6.25,27.3125 c 3.2176039,1.755092 6.475816,1.022956 9.853382,0.618559"
     id="path25" /><path
     style="fill:none;stroke:#ffffff;stroke-linecap:round;stroke-linejoin:round;stroke-dashoffset:0.5"
     d="M 14.933038,30.625 H 17.5178"
     id="path26" /><path
     style="display:inline;fill:none;stroke:#ffffff;stroke-linecap:round;stroke-linejoin:round;stroke-dashoffset:0.5"
     d="m 26.578588,23.203125 c 0.64613,0.454123 -1.45427,2.515881 -1.766088,-0.07813 0.557397,-0.193049 1.126385,-0.304962 1.766088,0.07813"
     id="path27" /><path
     style="fill:none;stroke:#ffffff;stroke-linecap:round;stroke-linejoin:round;stroke-dashoffset:0.5"
     d="m 19.524549,28.078214 c 0.390589,0.342953 1.900134,0.617179 2.68488,0.243068"
     id="path28" /><path
     style="fill:none;stroke:#ffffff;stroke-linecap:round;stroke-linejoin:round;stroke-dashoffset:0.5"
     d="m 23.138262,32.044915 c 0.105352,1.700437 1.08784,2.691685 1.767988,3.90821 1.895744,-1.248982 3.818533,-2.410067 5.879149,-3.123216"
     id="path38" /></svg>

<?xml version="1.0" encoding="UTF-8"?><svg id="a" xmlns="http://www.w3.org/2000/svg" viewBox="0 0 48 48"><defs><style>.ac{fill:none;stroke:#fff;stroke-linecap:round;stroke-linejoin:round;}</style></defs><circle id="b" class="ac" cx="24" cy="24" r="21.5"/><path id="c" class="ac" d="M18.8354,21.7108c.6461.4541-1.2881,1.962-1.7661-.0781.6064-.3934,1.2379-.2311,1.7661.0781"/><path id="d" class="ac" d="M33.6675,11.8562c-.4611-.4228-4.6833-3.5059-9.5049-2.9766-7.3663.9646-12.5901,8.5129-8.7295,16.7087"/><path id="e" class="ac" d="M28.5035,9.2756c-.1047-1.0424,1.194-2.1797-1.1268-3.0724-3.2932-1.4545-2.6613,1.2367-3.2142,2.6764"/><path id="f" class="ac" d="M28.7723,7.6393c2.3722-1.7846,4.0388,1.484,2.4109,2.6674"/><path id="g" class="ac" d="M31.8268,8.8452c.6489-.1367,1.3377-.2958,1.9533-.1329"/><path id="h" class="ac" d="M35.3343,5.7302c-.713.4112-1.4476.8039-1.4791,1.7993l.025,8.6539c.692-.2982.8253-.8114,2.2887-.8129h5.9581c.8395,0,.9081-.7008,1.0742-1.0434"/><path id="i" class="ac" d="M41.1233,11.1056c-.3414,1.0739-1.4105,1.7423-2.5255,1.5789-1.1149-.1634-1.9473-1.1105-1.9661-2.2372s.7813-2.1011,1.8902-2.3017"/><path id="j" class="ac" d="M34.022,6.8392c-2.095-1.2588-4.1901-.9926-6.2851-.4821"/><path id="k" class="ac" d="M22.4375,4.0312l2.4487,2.1837"/><path id="l" class="ac" d="M18.9688,6.618l5.453,1.1133"/><path id="m" class="ac" d="M36.9062,15.6875c2.4761,7.1946.3076,16.7944-6.6037,16.6406"/><path id="n" class="ac" d="M37.3628,17.2496l1.9653,2.6723"/><path id="o" class="ac" d="M15.433,25.5883c-.2297-4.1082.5502-7.9796,4.3795-11.1352-1.302,5.262.8053,6.2256,3.0359,8.0638-.2689-1.6543-.2312-3.4251.9612-5.6348,1.0123,1.8444,2.014,3.9737,3.0825,4.2979-.6917-1.8426-.0195-3.0954.3094-4.4967.4243,2.8192.8836,5.103,1.4253,6.1318"/><path id="p" class="ac" d="M30.3026,32.3281c-2.2852-.255-.5139-3.0524,1.5412-3.6875,2.6666-1.0124,2.2865-2.9801,2.3238-4.2969-2.1031,3.9612-6.2945,5.1402-9.605,8.7031"/><path id="q" class="ac" d="M28.6268,22.8152c-.452,3.6201-4.4922,6.5504-4.0643,10.2316"/><path id="r" class="ac" d="M15.433,25.5883c.8751,2.434,1.1277,5.1255,4.2857,6.6148,1.24.4289,3.3976,0,4.9111-.6957"/><path id="s" class="ac" d="M33.6649,19.1471c.8545-2.2812,2.2075-.8154,2.0219.3536.9659-.0927,1.9697,1.6675-.0221,2.1987.0439,2.3808-1.9923,1.5241-2.0771.3757-.8933,1.2032-2.6582.2117-1.3148-1.4142-1.0462-1.6326.3085-2.5891,1.3921-1.5137Z"/><path id="t" class="ac" d="M19.7188,32.2031c-3.7707,2.4968-7.4855,5.0273-6.8798,10.173"/><path id="u" class="ac" d="M31.2854,32.5932v1.2374c4.3268-.3746,6.0985,4.6488,6.3528,6.7901"/><path id="v" class="ac" d="M14.9308,35.9597l.0022-5.3347h-6.1518v8.6057"/><path id="w" class="ac" d="M7.5,32.8912h8.747"/><path id="x" class="ac" d="M8.7812,30.625h-2.0938v-1.4375l-1.8438-.1977,1.4062-1.6773c3.2176,1.7551,6.4758,1.023,9.8534.6186"/><path id="y" class="ac" d="M14.933,30.625h2.5848"/><path id="z" class="ac" d="M26.5786,23.2031c.6461.4541-1.4543,2.5159-1.7661-.0781.5574-.193,1.1264-.305,1.7661.0781"/><path id="aa" class="ac" d="M19.5245,28.0782c.3906.343,1.9001.6172,2.6849.2431"/><path id="ab" class="ac" d="M23.1383,32.0449c.1054,1.7004,1.0878,2.6917,1.768,3.9082,1.8957-1.249,3.8185-2.4101,5.8791-3.1232"/></svg>
